X: 42437
T: Westcoaster, The
R: hornpipe
M: 4/4
K: Gmajor
|:(B,A,)|G,B,DG Bdef|gdBG FGDB,|CEAB cBAG|(Fd)AF DCB,A,|
G,B,DG Bdef|gdBG FGDB,|CEAc BAGF|ABA G FG:|
|:(Bc)|dg (3ggg agfg|dg (3ggg agfg|ea (3aaa ba^ga|ea (3aaa (ba) (3gfe)|
(dg) (3ggg ag(fg)|dgfg dBGD|A,ABc BAGF|ABA G FG:|

